svg/emoji_u1f6a8.svg

<?xml version="1.0" encoding="UTF-8"?>
<svg width="128" height="128" enable-background="new 0 0 128 128" xmlns="http://www.w3.org/2000/svg"><rect x="-237" y="-56.67" width="0" height=".67" fill="#F2F2F2"/><rect x="77.68" y="42.01" width="1.36" height=".37" fill="#666"/><linearGradient id="a" x1="64.07" x2="64.07" y1="102.86" y2="36.559" gradientUnits="userSpaceOnUse"><stop stop-color="#D32F2F" offset=".2346"/><stop stop-color="#E73B33" offset=".5991"/><stop stop-color="#F44336" offset=".9106"/></linearGradient><path d="m115.02 104.15-0.21 15.76h-101.69l0.03-15.76 12.35-68.11c1.28-6.95 6.92-11.95 13.46-11.95h50.25c6.54 0 12.18 5 13.46 11.95l12.35 68.11z" fill="url(#a)"/><ellipse cx="64.09" cy="64.09" rx="30.46" ry="33" fill="#EF5350"/><polygon points="45.01 79.79 45.14 48.21 63.96 64.41" fill="#FFCDD2"/><polygon points="83.54 79.79 83.41 48.21 64.6 64.41" fill="#FFCDD2"/><g opacity=".2"><path d="m89.22 27.09c5.07 0 9.49 4 10.51 9.49l12.29 67.83-0.16 12.51h-95.73l0.03-12.49 12.3-67.84c1.02-5.5 5.44-9.5 10.51-9.5h50.25m0-3h-50.26c-6.54 0-12.18 5-13.46 11.95l-12.35 68.11-0.03 15.76h101.69l0.21-15.76-12.34-68.11c-1.29-6.95-6.92-11.95-13.46-11.95z" fill="#424242"/></g><path d="M4.09,124l0.02-10.94c0-4.9,3.66-8.86,8.18-8.87l103.42-0.04c4.47,0,8.12,3.88,8.19,8.73l0.2,11.12 H4.09z" fill="#424242"/><g opacity=".2"><path d="m115.71 107.15c2.81 0 5.14 2.59 5.18 5.78l0.14 8.07h-113.94l0.01-7.94c0-3.23 2.32-5.87 5.18-5.87l103.43-0.04m0-3-103.42 0.04c-4.52 0-8.18 3.97-8.18 8.87l-0.02 10.94h120l-0.2-11.12c-0.07-4.84-3.71-8.73-8.18-8.73z" fill="#eee"/></g></svg>

<svg width="128" height="128" style="enable-background:new 0 0 128 128;" xmlns="http://www.w3.org/2000/svg" xmlns:xlink="http://www.w3.org/1999/xlink">
  <rect height="0.67" style="fill:#F2F2F2;" width="0" x="-237" y="-56.67"/>
  <g>
    <rect height="0.37" style="fill:#666666;" width="1.36" x="77.68" y="42.01"/>
    <linearGradient id="SVGID_1_" gradientUnits="userSpaceOnUse" x1="64.0705" x2="64.0705" y1="102.8617" y2="36.559">
      <stop offset="0.2346" style="stop-color:#D32F2F"/>
      <stop offset="0.5991" style="stop-color:#E73B33"/>
      <stop offset="0.9106" style="stop-color:#F44336"/>
    </linearGradient>
    <path d="M115.02,104.15l-0.21,15.76H13.12l0.03-15.76L25.5,36.04c1.28-6.95,6.92-11.95,13.46-11.95 h50.25c6.54,0,12.18,5,13.46,11.95L115.02,104.15z" style="fill:url(#SVGID_1_);"/>
    <ellipse cx="64.09" cy="64.09" rx="30.46" ry="33" style="fill:#EF5350;"/>
    <polygon points="45.01,79.79 45.14,48.21 63.96,64.41 " style="fill:#FFCDD2;"/>
    <polygon points="83.54,79.79 83.41,48.21 64.6,64.41 " style="fill:#FFCDD2;"/>
    <g style="opacity:0.2;">
      <path d="M89.22,27.09c5.07,0,9.49,4,10.51,9.49l12.29,67.83l-0.16,12.51H16.13l0.03-12.49l12.3-67.84 c1.02-5.5,5.44-9.5,10.51-9.5H89.22 M89.22,24.09H38.96c-6.54,0-12.18,5-13.46,11.95l-12.35,68.11l-0.03,15.76h101.69l0.21-15.76 l-12.34-68.11C101.39,29.09,95.76,24.09,89.22,24.09L89.22,24.09z" style="fill:#424242;"/>
    </g>
    <path d="M4.09,124l0.02-10.94c0-4.9,3.66-8.86,8.18-8.87l103.42-0.04c4.47,0,8.12,3.88,8.19,8.73l0.2,11.12 H4.09z" style="fill:#424242;"/>
    <g style="opacity:0.2;">
      <path d="M115.71,107.15c2.81,0,5.14,2.59,5.18,5.78l0.14,8.07H7.09l0.01-7.94c0-3.23,2.32-5.87,5.18-5.87 L115.71,107.15L115.71,107.15 M115.71,104.15C115.71,104.15,115.71,104.15,115.71,104.15l-103.42,0.04 c-4.52,0-8.18,3.97-8.18,8.87L4.09,124h120l-0.2-11.12C123.82,108.04,120.18,104.15,115.71,104.15L115.71,104.15z" style="fill:#EEEEEE;"/>
    </g>
  </g>
</svg>
